!!!!SEGMENT: Ren2007-O_Jesu_Christe_miserere_mei
!!!id: Ren2007
!!!AGN: Motet
!!!voices: 4
!!!COM: Renaldo
!!!OTL: O Jesu Christe miserere mei
**kern	**kern	**kern	**kern
*part4	*part3	*part2	*part1
*staff4	*staff3	*staff2	*staff1
*I"Bassus	*I"Tenor	*I"Altus	*I"Superius
*I'B	*I'T	*I'A	*I'S
*clefF4	*clefGv2	*clefGv2	*clefG2
*k[b-]	*k[b-]	*k[b-]	*k[b-]
*F:	*F:	*F:	*F:
*M2/1	*M2/1	*M2/1	*M2/1
*met(C|)	*met(C|)	*met(C|)	*met(C|)
!!section: Prima Pars: O Jesu Christe miserere mei
!!!OMD: Prima Pars: O Jesu Christe miserere mei
=1	=1	=1	=1
0F	0c	0A	0f
=2	=2	=2	=2
1BB-y	1d	1B-y	1f
1BB-y	1d	1B-y	1f
=3	=3	=3	=3
0F	0c	0A	0f
=4	=4	=4	=4
0C	0c	0G	0e
=5	=5	=5	=5
1F	1c	1f	1a
2F	2c	2f	2a
2F	2c	2f	2a
=6	=6	=6	=6
2.C	0c	1e	2.g
4D	.	.	4f
2E	.	1r	2g
[2F	.	.	[2a
=7	=7	=7	=7
2F]	2A	2c	4a]
.	.	.	4g
2BB-y	2.B-y	1d	4f
.	.	.	4e
1D	.	.	4d
.	4A	.	4c
.	4G	2B-y	[2f
.	4F	.	.
=8	=8	=8	=8
1C	1G	1c	2f]
.	.	.	2e
[1FF	[1F	[1c	[1f
=9	=9	=9	=9
1FF]	1F]	1c]	1f]
[1F	[1c	[1f	[1a
=10	=10	=10	=10
1F]	1c]	1f]	1a]
1F	1c	1f	1a
=11	=11	=11	=11
1F	1c	1f	1a
1C	1c	1e	1g
=12	=12	=12	=12
1C	1c	1e	1g
1F	[1c	[1f	2.a
.	.	.	4g
=13	=13	=13	=13
2F	1c]	1f]	4a
.	.	.	4b-y
2A	.	.	1cc
[1G	[1d	[1g	.
.	.	.	4bnXi
.	.	.	4a
=14	=14	=14	=14
1G]	1d]	1g]	1bnXi
1C	1c	1e	1cc
=15	=15	=15	=15
2r	2r	2r	2r
2F	2c	2f	2a
1BB-y	1d	1f	1b-y
=16	=16	=16	=16
2F	2c	2f	2a
2F	2c	2f	2a
1G	1B-y	2.d	1g
.	.	4e	.
=17	=17	=17	=17
0F	0c	1f	2a
.	.	.	2.cc
.	.	2r	.
.	.	.	4b-y
.	.	[2f	4a
.	.	.	4g
=18	=18	=18	=18
0r	0r	4f]	2a
.	.	4e	.
.	.	4d	2.b-y
.	.	4c	.
.	.	2d	.
.	.	.	4a
.	.	[2e	4g
.	.	.	4f
=19	=19	=19	=19
0r	0r	4e]	2g
.	.	4d	.
.	.	4c	2.a
.	.	4B-y	.
.	.	2c	.
.	.	.	4g
.	.	[2d	4f
.	.	.	4e
=20	=20	=20	=20
0r	0r	4d]	2f
.	.	4c	.
.	.	4B-y	2.g
.	.	4A	.
.	.	2B-y	.
.	.	.	4f
.	.	[2c	4e
.	.	.	4d
=21	=21	=21	=21
0r	0r	4c]	4e
.	.	4B-y	4c
.	.	2A	1f
.	.	1G	.
.	.	.	2e
=22	=22	=22	=22
2r	1.c	2F	1f
1A	.	1f	.
.	.	.	1r
2G	2B-y	2e	.
=23	=23	=23	=23
2F	2A	2d	0r
2E	1G	1c	.
1D	.	.	.
.	2F	2BnXi	.
=24	=24	=24	=24
2C	2G	1c	2r
1F	2.A	.	1a
.	.	1c	.
.	4F	.	.
2E	2G	.	2g
=25	=25	=25	=25
2D	1A	1d	2f
2C	.	.	2e
1BB-y	2.B-y	1d	2d
.	.	.	2f
.	4A	.	.
=26	=26	=26	=26
2C	2G	2c	2e
2D	2F	2B-y	1f
1C	1G	1c	.
.	.	.	2e
=27	=27	=27	=27
2FF	2F	2A	2f
1F	1c	1f	1a
2F	2c	2f	2a
=28	=28	=28	=28
2F	2c	2f	2a
2F	2c	2f	2a
1C	1c	1e	1g
=29	=29	=29	=29
2r	2r	2r	0r
1F	1c	1f	.
2C	2c	2e	.
=30	=30	=30	=30
2F	2A	2d	0r
2E	1c	2c	.
1D	.	1f	.
.	2BnXi	.	.
=31	=31	=31	=31
2C	2c	2e	2r
1F	1c	1f	1a
2F	2c	2f	2a
=32	=32	=32	=32
2F	2A	2f	2a
2E	2.B-y	1c	2.g
2D	.	.	.
.	4A	.	4f
2D	4G	2BnXi	[2f
.	4F	.	.
=33	=33	=33	=33
1C	1G	1c	2f]
.	.	.	2e
[1FFl	[1Fl	[1cl	[1fl
=34	=34	=34	=34
00FF]	00F]	00c]	00f]
==	==	==	==
*-	*-	*-	*-
!!!system-decoration: [*]
!!!RDF**kern: i = editorial accidental
!!!RDF**kern: l = terminal long
!!!ENC: Benjamin Ory
!!!END: 2024/12/16
!!!EED: Benjamin Ory
!!!EEV: 2025/01/28
!!!YEC: Copyright 2025 Benjamin Ory, All Rights Reserved
!!!ONB: Translated from MusicXML on 2025/01/28